svgs/google_translate.svg

<svg width="192" height="192" viewBox="0 0 192 192" fill="none" xmlns="http://www.w3.org/2000/svg"><path fill-rule="evenodd" clip-rule="evenodd" d="M34 28a6 6 0 0 0-6 6v100a6 6 0 0 0 6 6h87.375L79.826 28H34Zm-18 6c0-9.941 8.059-18 18-18h50a6 6 0 0 1 5.625 3.913L97.077 40H158c9.941 0 18 8.059 18 18v100c0 9.941-8.059 18-18 18h-50a5.999 5.999 0 0 1-5.625-3.913L94.923 152H34c-9.941 0-18-8.059-18-18V34Zm119.625 109.913L101.529 52H158a6 6 0 0 1 6 6v100a6 6 0 0 1-6 6h-45.826l-4.452-12H130a5.997 5.997 0 0 0 4.925-2.574 5.996 5.996 0 0 0 .7-5.513ZM48 88c0-8.837 7.163-16 16-16 4.42 0 8.412 1.784 11.314 4.686a6 6 0 0 0 8.485-8.485A27.931 27.931 0 0 0 64 60c-15.464 0-28 12.536-28 28s12.536 28 28 28 28-12.536 28-28a6 6 0 0 0-6-6H64a6 6 0 0 0 0 12h14.837c-2.374 5.864-8.122 10-14.837 10-8.837 0-16-7.163-16-16Z" fill="#000"/></svg>

<?xml version="1.0" encoding="UTF-8" standalone="no"?><svg xmlns:android="http://schemas.android.com/apk/res/android" height="192" width="192" xmlns="http://www.w3.org/2000/svg">
  <path d="M34,28C30.686,28 28,30.686 28,34V134C28,137.314 30.686,140 34,140H121.375L79.826,28H34ZM16,34C16,24.059 24.059,16 34,16H84C86.509,16 88.753,17.561 89.625,19.913L97.077,40H158C167.941,40 176,48.059 176,58V158C176,167.941 167.941,176 158,176H108C105.491,176 103.247,174.439 102.375,172.087L94.923,152H34C24.059,152 16,143.941 16,134V34ZM135.625,143.913L101.529,52H158C161.314,52 164,54.686 164,58V158C164,161.314 161.314,164 158,164H112.174L107.722,152H130C131.964,152 133.804,151.039 134.925,149.426C136.047,147.814 136.309,145.755 135.625,143.913ZM48,88C48,79.163 55.163,72 64,72C68.42,72 72.412,73.784 75.314,76.686C77.657,79.029 81.456,79.029 83.799,76.686C86.142,74.343 86.142,70.544 83.799,68.201C78.739,63.141 71.73,60 64,60C48.536,60 36,72.536 36,88C36,103.464 48.536,116 64,116C79.464,116 92,103.464 92,88C92,84.686 89.314,82 86,82H64C60.686,82 58,84.686 58,88C58,91.314 60.686,94 64,94H78.837C76.463,99.864 70.715,104 64,104C55.163,104 48,96.837 48,88Z" fill="#000000" fill-rule="evenOdd"/>
</svg>
